X:6499
T:The Ballydesmond Polka #2
O:england
M:2/4
L:1/8
Q:300
C:Trad
R:polka
K:A Dor
EA A>B|cd e2|GF GA|GE ED|
EA A>B|cd e>f|ge dB|A2 A2:|
a2 a>b|ag ef|g2 g>a|ge ed|
ea a>b|ag ef|ge dB|A2 A2:|


